X:194
T:Miss Wallace
T:The moving bog
R:Reel
O:Ireland
B:O'Neill's 1452
B:Ceol Rince 1 n130
B:Music of Corktown n59
S:O'Neill's 1452
Z:Transcription:Bob Safranek, minor arr., chords:Mike Long
M:C|
L:1/8
K:G
D2[|\
"G"GBAF G2(AF)|"D"D2 (3(FED) ADFD|"G"DGGF "(C)"GABc|"D"d^cde fd=cA|\
"G"GBAF GBAF|"D"D2 (3(FED) ADFE|
"G"DG{A}GF "(C)"GABc|"D"dfeg fdcA|]\
"G"dg{a}gf gbag|"D"fd~d2 fdcA|"G"dg{a}gf g2fg|
"D"agbg ag{g}fe|\
"G"dg{a}gf gbag|"D"fgef defg|(3(agf) (ge) fde^c|dfeg fdcA|]
